X: 87
T: Boże, moja nadziejo i moja pomocy!
C: Mikołaj Gomółka
%%abc-version 2.0
%%abcx-abcm2ps-target-version 5.9.1 (29 Sep 2008)
%%abc-creator hum2abc beta
%%abcx-conversion-date 2021/10/04 07:59:10
%%abc-edited-by Anna Matuszewska
%%abcx-initial-encoding-date 2020-02-15
%%humdrum-veritas 3784717963
%%humdrum-veritas-data 2010460355
%%linebreak <none>
%%barnumbers 0
L: 1/4
M: C|
N: Derived from pl-wn--sd-xvi-qu-273--088_gomolka-mikolaj--boze-moja-nadziejo-i-moja-pomocy.krn
%%staves [1 2 3 4]
V: 1 clef=treble
V: 2
V: 3 clef=alto
V: 4
K: C
[V:1] A4A2f4 [I:setbarnb 3][|] 
[V:2] E4^F2A4 [|] 
[V:3] ^C4D2D4 [|] 
[V:4] A,4D,2D4 [|] 
[V:1] e2d2d2 [|] 
[V:2] A2A2G2 [|] 
[V:3] E2F2D2 [|] 
[V:4] ^C2D2B,2 [|] 
[V:1] c2f4e2 [|] 
[V:2] A2A4A2 [|] 
[V:3] E2D4E2 [|] 
[V:4] A,2D,4^C,2 [|] 
[V:1] d2d4c2 [|] 
[V:2] A2_B2A3G [|] 
[V:3] F2GFEDE2 [|] 
[V:4] D,2G,2A,4 [|] 
[V:1] d2A2d2c2 [|] 
[V:2] FEDEFGA3 [|] 
[V:3] D2F2D2E2 [|] 
[V:4] D,2D2B,2A,2 [|] 
[V:1] f4e2A4 [|] 
[V:2] GABc2E4 [|] 
[V:3] F4G2C4 [|] 
[V:4] D4C2A,4 [|] 
[V:1] A2F2G2 [|] 
[V:2] FEDCD2 [|] 
[V:3] C2D2D2 [|] 
[V:4] F,2B,2B,2 [|] 
[V:1] A8 [|] 
[V:2] E8 [|] 
[V:3] ^C8 [|] 
[V:4] A,8 [|] 


